X: 295
T: A Night In Garden Of Eden
R: polka
M: 2/4
K: Dminor
F2 ED|F2 ED|EF D2|zC FG|A2 GF|A2 GF|GA F2|zC FA|
c2 B2|A2 GF|FG FE|D3 C|FG- GF|(3AGF (3FED|1 D4:|2 D4-|D2 zA||
|:Ad dd|dA f/e/d|^cd BA|G3 G|^FG AB|^cd cB|A4-|A2 C2|
CF FA|cc BA|dG GG|GA/G/ FE|D2 AF|1 GG FG|A4|d2 zA:|2 GG FE|D4||
d4|zA FE|D4|zA BA|f4-|(3fed (3^cde|d4|zc =Bc|
d_e dc|=Bc _BA|=Bc _BA|G3 F|FG- GF|(3AGF (3FED|D4:|

